2024/event/img/day2_mono_pc.svg

<svg width="280" height="139" viewBox="0 0 280 139" fill="none" xmlns="http://www.w3.org/2000/svg">
<g clip-path="url(#clip0_3950_3703)">
<mask id="path-1-outside-1_3950_3703" maskUnits="userSpaceOnUse" x="50" y="38" width="172" height="79" fill="black">
<rect fill="white" x="50" y="38" width="172" height="79"/>
<path d="M52.128 111V104.568C73.056 86.136 83.712 72.408 83.712 60.792C83.712 53.208 79.68 47.928 71.808 47.928C66.24 47.928 61.632 51.384 57.888 55.704L51.552 49.656C57.696 43.032 63.936 39.096 73.152 39.096C86.112 39.096 94.464 47.448 94.464 60.312C94.464 73.848 83.52 87.96 68.544 102.36C72.192 101.976 76.704 101.592 80.16 101.592H97.824V111H52.128ZM113.374 61.144H156.51V115.48H150.046V67.224H119.582V115.672H113.374V61.144ZM117.598 83.032H152.734V88.984H117.598V83.032ZM117.534 105.432H152.798V111.512H117.534V105.432ZM180.638 75.736H216.67V81.496H180.638V75.736ZM180.638 90.776H216.67V96.536H180.638V90.776ZM180.638 105.816H216.67V111.704H180.638V105.816ZM176.35 60.76H220.766V115.928H214.366V66.712H182.43V115.928H176.35V60.76Z"/>
</mask>
<path d="M52.128 111V104.568C73.056 86.136 83.712 72.408 83.712 60.792C83.712 53.208 79.68 47.928 71.808 47.928C66.24 47.928 61.632 51.384 57.888 55.704L51.552 49.656C57.696 43.032 63.936 39.096 73.152 39.096C86.112 39.096 94.464 47.448 94.464 60.312C94.464 73.848 83.52 87.96 68.544 102.36C72.192 101.976 76.704 101.592 80.16 101.592H97.824V111H52.128ZM113.374 61.144H156.51V115.48H150.046V67.224H119.582V115.672H113.374V61.144ZM117.598 83.032H152.734V88.984H117.598V83.032ZM117.534 105.432H152.798V111.512H117.534V105.432ZM180.638 75.736H216.67V81.496H180.638V75.736ZM180.638 90.776H216.67V96.536H180.638V90.776ZM180.638 105.816H216.67V111.704H180.638V105.816ZM176.35 60.76H220.766V115.928H214.366V66.712H182.43V115.928H176.35V60.76Z" fill="white"/>
<path d="M52.128 111H51.128V112H52.128V111ZM52.128 104.568L51.4671 103.818L51.128 104.116V104.568H52.128ZM57.888 55.704L57.1975 56.4274L57.9565 57.1518L58.6437 56.3589L57.888 55.704ZM51.552 49.656L50.8188 48.976L50.1485 49.6987L50.8615 50.3793L51.552 49.656ZM68.544 102.36L67.8509 101.639L65.7496 103.66L68.6487 103.355L68.544 102.36ZM97.824 101.592H98.824V100.592H97.824V101.592ZM97.824 111V112H98.824V111H97.824ZM53.128 111V104.568H51.128V111H53.128ZM52.7889 105.318C63.2731 96.0846 71.2312 87.9894 76.5739 80.716C81.9105 73.451 84.712 66.9062 84.712 60.792H82.712C82.712 66.2938 80.1855 72.421 74.9621 79.532C69.7448 86.6346 61.9109 94.6193 51.4671 103.818L52.7889 105.318ZM84.712 60.792C84.712 56.8329 83.6594 53.3564 81.4633 50.8561C79.2505 48.3367 75.9812 46.928 71.808 46.928V48.928C75.5068 48.928 78.1895 50.1593 79.9607 52.1759C81.7486 54.2116 82.712 57.1671 82.712 60.792H84.712ZM71.808 46.928C65.8012 46.928 60.9403 50.6553 57.1323 55.0491L58.6437 56.3589C62.3237 52.1127 66.6788 48.928 71.808 48.928V46.928ZM58.5785 54.9806L52.2425 48.9326L50.8615 50.3793L57.1975 56.4274L58.5785 54.9806ZM52.2852 50.336C58.3131 43.8372 64.3061 40.096 73.152 40.096V38.096C63.5659 38.096 57.0789 42.2268 50.8188 48.976L52.2852 50.336ZM73.152 40.096C79.4134 40.096 84.4718 42.1093 87.962 45.5882C91.4521 49.067 93.464 54.1006 93.464 60.312H95.464C95.464 53.6594 93.2999 48.085 89.374 44.1717C85.4482 40.2587 79.8506 38.096 73.152 38.096V40.096ZM93.464 60.312C93.464 66.8104 90.835 73.5301 86.284 80.4632C81.7355 87.3927 75.3162 94.461 67.8509 101.639L69.2371 103.081C76.7478 95.859 83.2885 88.6713 87.956 81.5607C92.621 74.4539 95.464 67.3496 95.464 60.312H93.464ZM68.6487 103.355C72.2915 102.971 76.7596 102.592 80.16 102.592V100.592C76.6484 100.592 72.0925 100.981 68.4393 101.365L68.6487 103.355ZM80.16 102.592H97.824V100.592H80.16V102.592ZM96.824 101.592V111H98.824V101.592H96.824ZM97.824 110H52.128V112H97.824V110ZM113.374 61.144V60.144H112.374V61.144H113.374ZM156.51 61.144H157.51V60.144H156.51V61.144ZM156.51 115.48V116.48H157.51V115.48H156.51ZM150.046 115.48H149.046V116.48H150.046V115.48ZM150.046 67.224H151.046V66.224H150.046V67.224ZM119.582 67.224V66.224H118.582V67.224H119.582ZM119.582 115.672V116.672H120.582V115.672H119.582ZM113.374 115.672H112.374V116.672H113.374V115.672ZM117.598 83.032V82.032H116.598V83.032H117.598ZM152.734 83.032H153.734V82.032H152.734V83.032ZM152.734 88.984V89.984H153.734V88.984H152.734ZM117.598 88.984H116.598V89.984H117.598V88.984ZM117.534 105.432V104.432H116.534V105.432H117.534ZM152.798 105.432H153.798V104.432H152.798V105.432ZM152.798 111.512V112.512H153.798V111.512H152.798ZM117.534 111.512H116.534V112.512H117.534V111.512ZM113.374 62.144H156.51V60.144H113.374V62.144ZM155.51 61.144V115.48H157.51V61.144H155.51ZM156.51 114.48H150.046V116.48H156.51V114.48ZM151.046 115.48V67.224H149.046V115.48H151.046ZM150.046 66.224H119.582V68.224H150.046V66.224ZM118.582 67.224V115.672H120.582V67.224H118.582ZM119.582 114.672H113.374V116.672H119.582V114.672ZM114.374 115.672V61.144H112.374V115.672H114.374ZM117.598 84.032H152.734V82.032H117.598V84.032ZM151.734 83.032V88.984H153.734V83.032H151.734ZM152.734 87.984H117.598V89.984H152.734V87.984ZM118.598 88.984V83.032H116.598V88.984H118.598ZM117.534 106.432H152.798V104.432H117.534V106.432ZM151.798 105.432V111.512H153.798V105.432H151.798ZM152.798 110.512H117.534V112.512H152.798V110.512ZM118.534 111.512V105.432H116.534V111.512H118.534ZM180.638 75.736V74.736H179.638V75.736H180.638ZM216.67 75.736H217.67V74.736H216.67V75.736ZM216.67 81.496V82.496H217.67V81.496H216.67ZM180.638 81.496H179.638V82.496H180.638V81.496ZM180.638 90.776V89.776H179.638V90.776H180.638ZM216.67 90.776H217.67V89.776H216.67V90.776ZM216.67 96.536V97.536H217.67V96.536H216.67ZM180.638 96.536H179.638V97.536H180.638V96.536ZM180.638 105.816V104.816H179.638V105.816H180.638ZM216.67 105.816H217.67V104.816H216.67V105.816ZM216.67 111.704V112.704H217.67V111.704H216.67ZM180.638 111.704H179.638V112.704H180.638V111.704ZM176.35 60.76V59.76H175.35V60.76H176.35ZM220.766 60.76H221.766V59.76H220.766V60.76ZM220.766 115.928V116.928H221.766V115.928H220.766ZM214.366 115.928H213.366V116.928H214.366V115.928ZM214.366 66.712H215.366V65.712H214.366V66.712ZM182.43 66.712V65.712H181.43V66.712H182.43ZM182.43 115.928V116.928H183.43V115.928H182.43ZM176.35 115.928H175.35V116.928H176.35V115.928ZM180.638 76.736H216.67V74.736H180.638V76.736ZM215.67 75.736V81.496H217.67V75.736H215.67ZM216.67 80.496H180.638V82.496H216.67V80.496ZM181.638 81.496V75.736H179.638V81.496H181.638ZM180.638 91.776H216.67V89.776H180.638V91.776ZM215.67 90.776V96.536H217.67V90.776H215.67ZM216.67 95.536H180.638V97.536H216.67V95.536ZM181.638 96.536V90.776H179.638V96.536H181.638ZM180.638 106.816H216.67V104.816H180.638V106.816ZM215.67 105.816V111.704H217.67V105.816H215.67ZM216.67 110.704H180.638V112.704H216.67V110.704ZM181.638 111.704V105.816H179.638V111.704H181.638ZM176.35 61.76H220.766V59.76H176.35V61.76ZM219.766 60.76V115.928H221.766V60.76H219.766ZM220.766 114.928H214.366V116.928H220.766V114.928ZM215.366 115.928V66.712H213.366V115.928H215.366ZM214.366 65.712H182.43V67.712H214.366V65.712ZM181.43 66.712V115.928H183.43V66.712H181.43ZM182.43 114.928H176.35V116.928H182.43V114.928ZM177.35 115.928V60.76H175.35V115.928H177.35Z" fill="black" mask="url(#path-1-outside-1_3950_3703)"/>
<path d="M46.6667 70H280L233.333 139H0L46.6667 70Z" fill="#B3B3B3"/>
<path d="M52.128 111V104.568C73.056 86.136 83.712 72.408 83.712 60.792C83.712 53.208 79.68 47.928 71.808 47.928C66.24 47.928 61.632 51.384 57.888 55.704L51.552 49.656C57.696 43.032 63.936 39.096 73.152 39.096C86.112 39.096 94.464 47.448 94.464 60.312C94.464 73.848 83.52 87.96 68.544 102.36C72.192 101.976 76.704 101.592 80.16 101.592H97.824V111H52.128ZM113.374 61.144H156.51V115.48H150.046V67.224H119.582V115.672H113.374V61.144ZM117.598 83.032H152.734V88.984H117.598V83.032ZM117.534 105.432H152.798V111.512H117.534V105.432ZM180.638 75.736H216.67V81.496H180.638V75.736ZM180.638 90.776H216.67V96.536H180.638V90.776ZM180.638 105.816H216.67V111.704H180.638V105.816ZM176.35 60.76H220.766V115.928H214.366V66.712H182.43V115.928H176.35V60.76Z" fill="white"/>
</g>
<defs>
<clipPath id="clip0_3950_3703">
<rect width="280" height="139" fill="white"/>
</clipPath>
</defs>
</svg>

<svg xmlns="http://www.w3.org/2000/svg" width="280" height="139" fill="none" viewBox="0 0 280 139"><g clip-path="url(#a)"><mask id="b" width="172" height="79" x="50" y="38" fill="#000" maskUnits="userSpaceOnUse"><path fill="#fff" d="M50 38h172v79H50z"/><path d="M52.13 111v-6.43C73.06 86.14 83.7 72.4 83.7 60.79c0-7.58-4.03-12.86-11.9-12.86-5.57 0-10.18 3.45-13.92 7.77l-6.34-6.04c6.15-6.63 12.39-10.56 21.6-10.56 12.96 0 21.31 8.35 21.31 21.21 0 13.54-10.94 27.65-25.92 42.05 3.65-.38 8.16-.77 11.62-.77h17.66V111zm61.24-49.86h43.14v54.34h-6.46V67.22h-30.47v48.45h-6.2zm4.23 21.9h35.13v5.94H117.6zm-.07 22.4h35.27v6.07h-35.27zm63.1-29.7h36.04v5.76h-36.03zm0 15.04h36.04v5.76h-36.03zm0 15.04h36.04v5.88h-36.03zm-4.28-45.06h44.42v55.17h-6.4V66.7h-31.94v49.22h-6.08z"/></mask><path fill="#fff" d="M52.13 111v-6.43C73.06 86.14 83.7 72.4 83.7 60.79c0-7.58-4.03-12.86-11.9-12.86-5.57 0-10.18 3.45-13.92 7.77l-6.34-6.04c6.15-6.63 12.39-10.56 21.6-10.56 12.96 0 21.31 8.35 21.31 21.21 0 13.54-10.94 27.65-25.92 42.05 3.65-.38 8.16-.77 11.62-.77h17.66V111zm61.24-49.86h43.14v54.34h-6.46V67.22h-30.47v48.45h-6.2zm4.23 21.9h35.13v5.94H117.6zm-.07 22.4h35.27v6.07h-35.27zm63.1-29.7h36.04v5.76h-36.03zm0 15.04h36.04v5.76h-36.03zm0 15.04h36.04v5.88h-36.03zm-4.28-45.06h44.42v55.17h-6.4V66.7h-31.94v49.22h-6.08z"/><path fill="#000" d="M52.13 111h-1v1h1zm0-6.43-.66-.75-.34.3v.45zm5.76-48.87-.7.73.77.72.68-.8zm-6.34-6.04-.73-.68-.67.72.71.68zm17 52.7-.7-.72-2.1 2.02 2.9-.3zm29.27-.77h1v-1h-1zm0 9.41v1h1v-1zm-44.7 0v-6.43h-2V111zm-.33-5.68c10.48-9.24 18.44-17.33 23.78-24.6s8.14-13.81 8.14-19.93h-2c0 5.5-2.52 11.63-7.75 18.74-5.22 7.1-13.05 15.09-23.5 24.29zM84.7 60.79c0-3.96-1.05-7.43-3.25-9.93-2.2-2.52-5.48-3.93-9.65-3.93v2c3.7 0 6.38 1.23 8.15 3.25 1.79 2.03 2.75 4.99 2.75 8.61zM71.8 46.93c-6 0-10.87 3.73-14.68 8.12l1.51 1.3c3.68-4.24 8.04-7.42 13.17-7.42zm-13.23 8.05-6.34-6.05-1.38 1.45 6.34 6.05zm-6.3-4.64C58.3 43.84 64.3 40.1 73.14 40.1v-2c-9.58 0-16.07 4.13-22.33 10.88zM73.16 40.1c6.26 0 11.32 2 14.81 5.49 3.5 3.48 5.5 8.51 5.5 14.72h2c0-6.65-2.16-12.23-6.09-16.14s-9.52-6.07-16.22-6.07zm20.3 20.2c0 6.5-2.62 13.22-7.18 20.15-4.54 6.93-10.96 14-18.43 21.18l1.39 1.44c7.5-7.22 14.05-14.4 18.72-21.52 4.66-7.1 7.5-14.21 7.5-21.25zm-24.81 43.05c3.64-.39 8.11-.77 11.51-.77v-2c-3.51 0-8.07.4-11.72.77zm11.51-.77h17.66v-2H80.16zm16.66-1V111h2v-9.4zm1 8.41h-45.7v2h45.7zm15.55-48.86v-1h-1v1zm43.14 0h1v-1h-1zm0 54.34v1h1v-1zm-6.46 0h-1v1h1zm0-48.26h1v-1h-1zm-30.47 0v-1h-1v1zm0 48.45v1h1v-1zm-6.2 0h-1v1h1zm4.22-32.64v-1h-1v1zm35.13 0h1v-1h-1zm0 5.95v1h1v-1zm-35.13 0h-1v1h1zm-.07 16.45v-1h-1v1zm35.27 0h1v-1h-1zm0 6.08v1h1v-1zm-35.27 0h-1v1h1zm-4.16-49.37h43.14v-2h-43.14zm42.14-1v54.34h2V61.14zm1 53.34h-6.46v2h6.46zm-5.46 1V67.22h-2v48.26zm-1-49.26h-30.47v2h30.47zm-31.47 1v48.45h2V67.22zm1 47.45h-6.2v2h6.2zm-5.2 1V61.14h-2v54.53zm3.22-31.64h35.13v-2H117.6zm34.13-1v5.95h2v-5.95zm1 4.95H117.6v2h35.13zm-34.13 1v-5.95h-2v5.95zm-1.07 17.45h35.27v-2h-35.27zm34.27-1v6.08h2v-6.08zm1 5.08h-35.27v2h35.27zm-34.27 1v-6.08h-2v6.08zm62.1-35.77v-1h-1v1zm36.04 0h1v-1h-1zm0 5.76v1h1v-1zm-36.03 0h-1v1h1zm0 9.28v-1h-1v1zm36.03 0h1v-1h-1zm0 5.76v1h1v-1zm-36.03 0h-1v1h1zm0 9.28v-1h-1v1zm36.03 0h1v-1h-1zm0 5.88v1h1v-1zm-36.03 0h-1v1h1zm-4.29-50.94v-1h-1v1zm44.42 0h1v-1h-1zm0 55.17v1h1v-1zm-6.4 0h-1v1h1zm0-49.22h1v-1h-1zm-31.94 0v-1h-1v1zm0 49.22v1h1v-1zm-6.08 0h-1v1h1zm4.29-39.2h36.03v-2h-36.03zm35.03-1v5.77h2v-5.76zm1 4.77h-36.03v2h36.03zm-35.03 1v-5.76h-2v5.76zm-1 10.28h36.03v-2h-36.03zm35.03-1v5.76h2v-5.76zm1 4.76h-36.03v2h36.03zm-35.03 1v-5.76h-2v5.76zm-1 10.28h36.03v-2h-36.03zm35.03-1v5.88h2v-5.88zm1 4.88h-36.03v2h36.03zm-35.03 1v-5.88h-2v5.88zm-5.29-49.94h44.42v-2h-44.42zm43.42-1v55.17h2V60.76zm1 54.17h-6.4v2h6.4zm-5.4 1V66.7h-2v49.22zm-1-50.22h-31.94v2h31.94zm-32.94 1v49.22h2V66.7zm1 48.22h-6.08v2h6.08zm-5.08 1V60.76h-2v55.17z" mask="url(#b)"/><path fill="#b3b3b3" d="M46.67 70H280l-46.67 69H0z"/><path fill="#fff" d="M52.13 111v-6.43C73.06 86.14 83.7 72.4 83.7 60.79c0-7.58-4.03-12.86-11.9-12.86-5.57 0-10.18 3.45-13.92 7.77l-6.34-6.04c6.15-6.63 12.39-10.56 21.6-10.56 12.96 0 21.31 8.35 21.31 21.21 0 13.54-10.94 27.65-25.92 42.05 3.65-.38 8.16-.77 11.62-.77h17.66V111zm61.24-49.86h43.14v54.34h-6.46V67.22h-30.47v48.45h-6.2zm4.23 21.9h35.13v5.94H117.6zm-.07 22.4h35.27v6.07h-35.27zm63.1-29.7h36.04v5.76h-36.03zm0 15.04h36.04v5.76h-36.03zm0 15.04h36.04v5.88h-36.03zm-4.28-45.06h44.42v55.17h-6.4V66.7h-31.94v49.22h-6.08z"/></g><defs><clipPath id="a"><path fill="#fff" d="M0 0h280v139H0z"/></clipPath></defs></svg>
